X:94
T: Gib mir die Blume (Band 1), S. 264
N: P0869
O: Lothringen
S: PINCK, Louis: Verklingende Weisen, Bd 1, Metz 1928]
R: ???, Tanzlied, Walzer]
M: 3/8
L: 1/16
K: D
G2G2G2 | G4A2 | G2G2F2 | E4
E2 | E2E2E2 | D4B,2 | D2B,2C2 | B,4z2 |
E2E2D2 | G3GB2 | A2G2F2 | E4z2 |
A2G2F2 | E3ED2 | E2D2C2 | D4z2

@@@ Tune index: 7644
